src/topics/icons/osquery.svg

<?xml version="1.0" encoding="UTF-8" standalone="no"?>
<svg width="256px" height="255px" viewBox="0 0 256 255" version="1.1" xmlns="http://www.w3.org/2000/svg" xmlns:xlink="http://www.w3.org/1999/xlink" preserveAspectRatio="xMidYMid">
	<g>
		<path d="M255.214617,0.257580247 L255.214617,63.993679 L191.609679,127.598617 L191.609679,63.7297778 L255.214617,0.257580247" fill="#A596FF"></path>
		<path d="M128.006321,0.257580247 L128.006321,63.993679 L191.611259,127.598617 L191.611259,63.7297778 L128.006321,0.257580247" fill="#000000"></path>
		<path d="M255.345778,254.803753 L191.609679,254.803753 L128.004741,191.198815 L191.872,191.198815 L255.345778,254.803753" fill="#A596FF"></path>
		<path d="M255.345778,127.595457 L191.609679,127.595457 L128.004741,191.200395 L191.872,191.200395 L255.345778,127.595457" fill="#000000"></path>
		<path d="M0.801185185,254.936494 L0.801185185,191.198815 L64.4061235,127.593877 L64.4061235,191.462716 L0.801185185,254.936494" fill="#A596FF"></path>
		<path d="M128.009481,254.936494 L128.009481,191.198815 L64.4045432,127.593877 L64.4045432,191.462716 L128.009481,254.936494" fill="#000000"></path>
		<path d="M0.671604938,0.385580247 L64.4077037,0.385580247 L128.012642,63.9905185 L64.1453827,63.9905185 L0.671604938,0.385580247" fill="#A596FF"></path>
		<path d="M0.671604938,127.593877 L64.4077037,127.593877 L128.012642,63.9889383 L64.1453827,63.9889383 L0.671604938,127.593877" fill="#000000"></path>
	</g>
</svg>

<svg height="255" preserveAspectRatio="xMidYMid" viewBox="0 0 256 255" width="256" xmlns="http://www.w3.org/2000/svg"><path d="m255.214617.25758025v63.73609875l-63.604938 63.604938v-63.8688392z" fill="#a596ff"/><path d="m128.006321.25758025v63.73609875l63.604938 63.604938v-63.8688392z"/><path d="m255.345778 254.803753h-63.736099l-63.604938-63.604938h63.867259z" fill="#a596ff"/><path d="m255.345778 127.595457h-63.736099l-63.604938 63.604938h63.867259z"/><path d="m.80118519 254.936494v-63.737679l63.60493831-63.604938v63.868839z" fill="#a596ff"/><path d="m128.009481 254.936494v-63.737679l-63.6049378-63.604938v63.868839z"/><path d="m.67160494.38558025h63.73609876l63.6049383 63.60493825h-63.8672593z" fill="#a596ff"/><path d="m.67160494 127.593877h63.73609876l63.6049383-63.6049387h-63.8672593z"/></svg>
